X: 11865
T: Emile's Dream
R: jig
M: 6/8
K: Dmajor
A,DF ABA|GFG BAF|A,DF ABA|G3 GFG|
BAB EFG|ABA FED|A,CE GFE|1 F3 FEF:|2 F3 z3||
DFA dcd|c2E c2c|EDE cBc|B2{cB}A A2F|
DFA BAB|G3 GBd|cBA GFE|1 F3 F3:|2 D3 z3||

